X:1
T:The Voice of the Bridegroom
T:The Voice of the Bridegroom
T:George Washington Sederquist
T:H. V. Skipper, 1902
T:Public Domain Courtesy of the Cyber Hymnal™
T:Public Domain Courtesy of the Cyber Hymnal™
C:George Washington Sederquist
Z:Public Domain
Z:Courtesy of the Cyber Hymnal™
%%score ( 1 2 ) ( 3 4 )
L:1/8
Q:1/4=95
M:3/4
K:Ab
V:1 treble 
V:2 treble 
V:3 bass 
V:4 bass 
V:1
 [CE]2 | [Ec][CA] [CE]3 [EA] | [EG][DF] [DF]3 [Fc] | [Fd]2 [FB]2 [DG]>[DF] | [DE]4 [DE]2 | %5
w: 1.~The|night was dark, and|all was still, Ten|vir- gins slum- bered|on, When|
w: 2.~Those|vir- gins rose and|trimmed their lamps, For|they had wait- ed|long In|
w: 3.~Five|of them stood in|sore dis- may, For|out their lamps had|gone; They|
w: 4.~“Give|of your oil,” the|fool- ish cried, “That|we our lamps may|trim; ’Tis|
w: 5.~“There’s|not e- nough for|us and you,” The|oth- ers did re-|ply; “But|
w: 6.~And|while with emp- ty|lamps they went For|oil at yon- der|store, The|
 [Cc][Ec] [CA]3 [EA] | [EG][DF] [FB]3 [Fc] | [Fd]3 [FB] [EG]>[DE] | [CA]6 || %9
w: sud- den- ly each|heart was thrilled To|hear the start- ling|song.|
w: hope to see their|ab- sent Lord, And|greet Him with their|song.|
w: tried in vain, it|was too late To|join the bri- dal|throng.|
w: dark, the way we|can- not see, We|have no light with-|in.”|
w: go at once to|those who sell; Make|haste of them to|buy.”|
w: Bride- groom came, and|took the wise And|shut sal- va- tion’s|door.|
[M:4/4]"^Refrain" [Ec] z [CA]>[CA] ([CA][DG]) [EA]>[EB] | [Ec]4 [CA]4 | %11
w: ||
w: ||
w: Hark! ’tis the voice * of the|Bride- groom,|
w: ||
w: ||
w: ||
 [EB] [EB]2 [EB]"^riten." [Ec]2 [A=d]>[Ad] | [Ge]6"^a tempo" [Ee]2 | %13
w: ||
w: ||
w: Call- ing His loved ones a-|way; Be|
w: ||
w: ||
w: ||
 [Ec]<[Ec] [CA]>[DF] [CE]2 [EA][EA] | [EG] [DF]4- [DF] (Bc) | [Fd]2 [FB]>[FA] [EG]E [DF]>[DG] | %16
w: |||
w: |||
w: rea- dy with your lamps bright- ly|burn- ing, * To *|wel- come the Mas- ter on that|
w: |||
w: |||
w: |||
 !fermata!c6 |] %17
w: |
w: |
w: day.|
w: |
w: |
w: |
V:2
 x2 | x6 | x6 | x6 | x6 | x6 | x6 | x6 | x6 ||[M:4/4] x8 | x8 | x8 | x8 | x8 | x6 F2 | x5 E x2 | %16
 (C2 D2 C2) |] %17
V:3
 [A,,A,]2 | [A,,A,][A,,E,] [A,,A,]3 [C,A,] | [D,A,][D,A,] [D,A,]3 [C,=A,] | %3
 [B,,B,]2 [D,B,]2 [E,B,]>[E,A,] | [E,G,]4 [E,G,]2 | [A,,A,][A,,A,] [A,,E,]3 [C,A,] | %6
 [D,A,][D,A,] [D,B,]3 [C,=A,] | [B,,B,]3 [D,B,] [E,B,]>[E,G,] | [A,,A,]6 || %9
[M:4/4] [A,,A,] z [A,,E,]>[A,,E,] E,2 [C,A,]>[E,G,] | A,4 [A,,E,]4 | %11
 [E,G,] [E,G,]2 [E,G,] A,2 [F,B,]>[B,,B,] | [E,B,]6 [E,G,]2 | %13
 [A,,A,]<[A,,A,] [A,,A,]>[A,,A,] [A,,A,]2 [C,A,][C,A,] | [D,A,] [D,A,]4- [D,A,] ([D,B,][C,=A,]) | %15
 [B,,B,]2 [D,B,]>[=D,B,] [E,B,][E,G,] [E,A,]>[E,B,] | (!fermata!A,2 F,2 !fermata!E,2) |] %17
V:4
 x2 | x6 | x6 | x6 | x6 | x6 | x6 | x6 | x6 ||[M:4/4] x4 (A,,B,,) x2 | A,4 x4 | x4 A,2 x2 | x8 | %13
 x8 | x8 | x8 | A,,6 |] %17

